X: 827
T: Whip the Cat *INCOMPLETE*
%R: reel
B: John Walsh "Caledonian Country Dances"
S: 2: CCD2  http://petrucci.mus.auth.gr/imglnks/usimg/5/50/IMSLP98359-PMLP202128-walsh_caledonian_country_dance_vol2.1.pdf p.10 #270
S: 4: ACMV  http://archive.org/details/acompositemusicv01rugg p.4:10 #270
Z: 2013 John Chambers <jc:trillian.mit.edu>
M: C|
L: 1/8
K: G
% - - - - - - - - - - - - - - - - - - - - - - - - -
V: 1
|:\
G/A/B/A/ GA Bcd2 | gdTcB gdTcB | Aa2g {g}Tf2ed |\
G/A/B/A/ GA Bcd2 | gdTcB gdTcB | Aagf g2G2 :|
|:\
be ((3gfe) be ((3gfe) | (3fga (Tf3/e//d//) (3fga (Tf3/e//d//) |\
be ((3gfe) be ((3gfe) | (3fga (Tf3/e//d//) (3fga (Tf3/e//d//) |\
gG GA TBcd2 | gdTcB gdTcB|
% - - - - - - - - - - - - - - - - - - - - - - - - -
V: 2 clef=bass middle=d
|: g2g2 g2g2 | G2G2 G2G2 | c2A2 d2c2 | B2d2 g2g2 | G2G2 G2G2 | c2d2 G2G2 :|
|: e2e2 e2e2 | d2d2 d2d2 | e2e2 e2e2 | d2d2 d2d2 | B2d2 G2G2 | G2G2 B2B2 |
% - - - - - - - - - - - - - - - - - - - - - - - - -
%%begintext align
%% This tune seems incomplete, and lacks a dance description.
%% The document also jumps from this tune on page 10 to page 27.
%%endtext

%%sep 1 1 500
%%sep 1 1 500
